X: 23686
T: Lintie, The
R: reel
M: 4/4
K: Amajor
af|:eAAA A2 Ac|efec fece|fBBB BcBA|Bffe f2 af|
eAAA A2 Ac|efec fece|faaf ecaA|1 Bcef A2 af:|2 Bcef A2 cd||
|:~e3f ecce|AceA ceAc|~f3a fBBd|BdfB dfaf|
~e3f ecce|AceA ceAc|faaf ecaA|1 Bcef A2 cd:|2 Bcef A2||

